X: 5
T: Stoney Steps
R: reel
M: 4/4
L: 1/8
K: Dmaj
A3B AF~F2|AFdf efdA|FA~A2 BzAF|1 EFGE FDDB:|2 EFGE FDDz||fedc defg|azbf afeg|fded fded|(3Bcd af edeg|fedc defg|azbf afeg|~f3a ~e3f|dfaf efdB||A3B AF~F2|ABdf e2dA|FA~A2 BFAF|EFGE FDdB|A^GAB AF~F2|ABdf e2dA|FA~A2 BFAF|EFGE FAde||fd~d2 d2fg|a2bf afeg|fd~d2 dBAd|BFAF E3g|fd~d2 d2fg|a2bf afeg|f3d e2de|fdaf efdB||


Tune 571	Setting 13548

